X:274
T:La chèvre et le chou
C:Michel-A Roy
Z:robin.beech@mcgill.ca
R:reel
M:4/4
L:1/8
K:A
AG |: FGAB cfec | d2ag fede | c2cd cBAc | B2Bc BAGA |
FGAB cfec | d2ag fefa | c2cd cBAc | B2Bc BAGA |:
K:Am
ABcd egc'b | a2aa aabc' | g2gg ggfe |1 d2dd ddef :|2 d2de d2A^G |]
